X:1
T:14 Bagatelles
T:Molto sostenuto
T: 
T:14 Bagatelles 
T:1. Molto sostenuto
T:Béla Bartók 
T:Oli 2020
C:Bartók, Béla
Z:Oli 2020
%%score { ( 1 3 ) | ( 2 4 ) }
L:1/8
Q:1/4=66
M:4/4
K:E
V:1 treble nm="Piano"
V:3 treble 
V:2 treble 
V:4 treble 
V:1
"^Molto Sostenuto" z2!mf!!<(! (!tenuto!!1!C2 !tenuto!C2 !tenuto!D2 | !^!E8-!<)! | %2
 E2)!<(! (!tenuto!G2 !tenuto!C2 !tenuto!D2!<)! | !^!E8- | %4
 E2)!<(! (!tenuto!!2!F2 !tenuto!G2 !tenuto!EF!<)! | !^!A4)"_sonore"!<(! (!2!B c2 A | %6
 !5!B F2 E !3!F!<)!!>(! C2 !5!G | F G2 A,)!>)! !2!B,<E !^!E2- | E8- | E2!<(! (G2 F2 C!<)!B,) | %10
 (!>!C<E) !^!E6- | E2"_molto cresc." !tenuto!!1!F2 B (c2 !5!f) | %12
 (!5!e2 B)(!1!F!>(! !5!c2 G)[K:bass](!1!D | A2 E)!>)!!<(!B, (C<!<)!F) !^!G2- | G8 | %15
[K:treble]!<(! (C<F)!<)! !^!G6 |!p! (A,<B,) !>!E4 !^!E2- |"^ritard."[Q:1/4=50]"^T" E8 |] %18
V:2
 z8 | z4!p!!>(! (!tenuto!.!1!=G!tenuto!.=F!tenuto!._E!tenuto!._D |!pp! !tenuto!=C2)!>)! z2 z4 | %3
 z4!>(! (!tenuto!.=G!tenuto!.=F!tenuto!._E!tenuto!._D | !tenuto!=C2)!>)! z2 z4 | %5
!>(! (!tenuto!.=c!tenuto!._B!tenuto!._A!tenuto!.=G!>)! =F2) z2 | z8 | z8 | %8
[K:bass]!>(! z4!>)! (!tenuto!.=G,!tenuto!.=F,!tenuto!._E,!tenuto!._D, | =C,2) z2 z4 | %10
!>(! z4!>)! (!tenuto!.=G,!tenuto!.=F,!tenuto!._E,!tenuto!._D, | !tenuto!=C,2) z2 z4 | z8 | z8 | %14
!>(! (!tenuto!.!1!=G,!tenuto!.=F,!tenuto!._E,!tenuto!._D, !tenuto!.!1!=C,!tenuto!._B,,!tenuto!._A,,!tenuto!.=G,,)!>)! | %15
 z4!>(! !tenuto!.!1!=G,!tenuto!.=F,!tenuto!._E,!tenuto!._D,!>)! | %16
!ppp! z4!pp! (!tenuto!.=G,!tenuto!.=F,!tenuto!._E,!tenuto!._D, |!>(! =C,2) z2!>)! z4 |] %18
V:3
 x8 | x2 x2 x4 | x8 | x8 | x8 | x8 | x8 | x8 | x8 | x8 | x8 | z2 A,2 B, (C2 F) | %12
 (E2 B,)(F, C2 G,)[K:bass](D, | A,2 E,)B,, (C,<F,) G,2- | G,6 z2 |[K:treble] x8 | x8 | x8 |] %18
V:4
 x8 | x8 | x8 | x8 | x8 | x8 | x8 | x8 | %8
[K:bass] (!tenuto!._D,!tenuto!.=C,!tenuto!._B,,!tenuto!._A,, !tenuto!=G,,2) z2 | x8 | %10
 !tenuto!._D,!tenuto!.=C,!tenuto!._B,,!tenuto!._A,, !tenuto!=G,,2 z2 | x8 | x8 | x8 | x8 | x8 | %16
 (!tenuto!.!1!=C,!tenuto!.!3!_B,,!tenuto!._A,,!tenuto!.=G,,- G,,) z z2 | %17
 (!tenuto!.!5!=G!tenuto!.!4!=F!tenuto!._E!tenuto!._D =C4) |] %18

